X: 4088
T: Blockers, The
R: reel
M: 4/4
K: Gmajor
|:Bcdc BG ~G2|=FDCD FGAc|dg ~g2 fage|fdcB A=FFA|
Bcdc BGGA|=FDCD FGAc|dg ~g2 fage|fdcA [1BGGA:|2 BGBd||
|:(3gag ga gdBd|(3cdc cd cAFA|DG ~G2 FGAc|Bcde fdef|
(3gag fa gdBd|(3c/d/c/BdB cAFA|DG ~G2 FGAc|BGAF [1DGBd:|2 DGG2||

